poi/svg/2612.svg

<?xml version="1.0" encoding="UTF-8" standalone="no"?>
<svg
   xmlns:dc="http://purl.org/dc/elements/1.1/"
   xmlns:cc="http://creativecommons.org/ns#"
   xmlns:rdf="http://www.w3.org/1999/02/22-rdf-syntax-ns#"
   xmlns:svg="http://www.w3.org/2000/svg"
   xmlns="http://www.w3.org/2000/svg"
   xmlns:sodipodi="http://sodipodi.sourceforge.net/DTD/sodipodi-0.dtd"
   xmlns:inkscape="http://www.inkscape.org/namespaces/inkscape"
   inkscape:version="1.0 (4035a4fb49, 2020-05-01)"
   sodipodi:docname="2612.svg"
   id="svg20"
   version="1.2"
   viewBox="0 0 42.519639 42.519639"
   height="14.999999mm"
   width="14.999999mm">
  <metadata
     id="metadata24">
    <rdf:RDF>
      <cc:Work
         rdf:about="">
        <dc:format>image/svg+xml</dc:format>
        <dc:type
           rdf:resource="http://purl.org/dc/dcmitype/StillImage" />
        <dc:title>Qt SVG Document</dc:title>
      </cc:Work>
    </rdf:RDF>
  </metadata>
  <sodipodi:namedview
     inkscape:current-layer="svg20"
     inkscape:window-maximized="0"
     inkscape:window-y="0"
     inkscape:window-x="0"
     inkscape:cy="28.346482"
     inkscape:cx="28.346482"
     inkscape:zoom="5.8410537"
     showgrid="false"
     id="namedview22"
     inkscape:window-height="480"
     inkscape:window-width="1034"
     inkscape:pageshadow="2"
     inkscape:pageopacity="0"
     guidetolerance="10"
     gridtolerance="10"
     objecttolerance="10"
     borderopacity="1"
     bordercolor="#666666"
     pagecolor="#ffffff" />
  <title
     id="title2">Qt SVG Document</title>
  <desc
     id="desc4">Generated with Qt</desc>
  <defs
     id="defs6" />
  <g
     transform="translate(5.25984,5.25984)"
     id="g18"
     stroke-linejoin="bevel"
     stroke-linecap="square"
     fill-rule="evenodd"
     stroke-width="1"
     stroke="#000000"
     fill="none">
    <g
       id="g10"
       font-style="normal"
       font-weight="400"
       font-size="7.8px"
       font-family="'MS Shell Dlg 2'"
       stroke="none"
       fill-opacity="1"
       fill="#6fa56c">
      <path
         id="path8"
         d="M 37.2598,16 C 37.2598,27.7415 27.7415,37.2598 16,37.2598 4.25851,37.2598 -5.25984,27.7415 -5.25984,16 -5.25984,4.25851 4.25851,-5.25984 16,-5.25984 27.7415,-5.25984 37.2598,4.25851 37.2598,16"
         fill-rule="evenodd"
         vector-effect="non-scaling-stroke" />
    </g>
    <g
       id="g14"
       font-style="normal"
       font-weight="400"
       font-size="7.8px"
       font-family="'MS Shell Dlg 2'"
       transform="translate(16,12.5984)"
       stroke="none"
       fill-opacity="0.94902"
       fill="#ffffff">
      <path
         id="path12"
         d="m -2.1084,-4.91846 c 0.12598,0.22396 0.21696,0.36394 0.27295,0.41992 l -5.12305,2.41456 c 0.08399,0.27994 0.28345,0.5284 0.59839,0.74536 0.31494,0.21696 0.47241,0.423418 0.47241,0.619382 0,0.181966 -0.12247,0.32194 -0.36743,0.419922 -0.24495,0.097981 -0.47941,0.146972 -0.70337,0.146972 -0.08398,0 -0.17846,-0.062988 -0.28344,-0.188965 C -7.34692,-0.467285 -7.4554,-0.617757 -7.56738,-0.792725 -7.67936,-0.967692 -7.78434,-1.14966 -7.88232,-1.33862 -7.98031,-1.52759 -8.04329,-1.69206 -8.07129,-1.83203 l -0.08398,-0.08399 c 0,-0.05599 0.007,-0.11197 0.02099,-0.16796 0.014,-0.05599 0.06299,-0.11198 0.14698,-0.16797 l 5.8789,-2.66651 m 10.2461,1.80567 c 0.13997,0.30794 0.13997,0.62288 0,0.94482 -0.16797,0.33594 -0.44092,0.50391 -0.81885,0.50391 H 4.77832 L 7.61279,3.58496 C 7.79476,3.99089 7.88574,4.36182 7.88574,4.69775 L 7.78076,10.6396 v 0.399 L 5.51318,17.1694 C 5.24723,17.6593 4.8763,17.9043 4.40039,17.9043 H 4.00146 C 3.69352,17.7643 3.47306,17.5439 3.34009,17.2429 3.20711,16.942 3.18262,16.6305 3.2666,16.3086 L 5.51318,10.3877 V 7.55322 L 4.65234,10.5557 c -0.05599,0.0839 -0.09798,0.1749 -0.12597,0.2729 -0.028,0.098 -0.06999,0.196 -0.12598,0.294 l -3.884277,5.7529 c -0.167968,0.2939 -0.395426,0.4759 -0.682373,0.5459 -0.286946,0.07 -0.570394,0.021 -0.85034,-0.147 -0.29395,-0.2099 -0.47591,-0.4724 -0.5459,-0.7873 -0.06999,-0.315 -0.007,-0.6124 0.18896,-0.8924 L 2.36377,9.98877 2.93066,4.40381 V 4.31982 C 2.93066,4.09587 2.86768,3.87541 2.7417,3.65845 2.61572,3.44149 2.46175,3.17204 2.27979,2.8501 2.16781,2.68213 1.94735,2.34619 1.61841,1.84229 1.28947,1.33838 0.953532,0.809977 0.610596,0.25708 0.26766,-0.295817 -0.0542806,-0.803223 -0.355225,-1.26514 -0.656169,-1.72705 -0.848633,-2 -0.932617,-2.08398 -1.0446,-2.30794 -1.10059,-2.49691 -1.10059,-2.65088 c 0,-0.16797 0.042,-0.33244 0.125981,-0.49341 0.083984,-0.16097 0.223958,-0.26945 0.419921,-0.32544 0.139974,0.05599 0.276449,0.08399 0.409424,0.08399 0.1329756,0 0.26945,0 0.409424,0 0.083985,0 0.192464,0 0.32544,0 0.132975,0 0.241455,-0.028 0.325439,-0.08399 0.083984,0 0.153971,-0.01399 0.209961,-0.04199 0.05599,-0.02799 0.11198,-0.04199 0.16797,-0.04199 H 5.68115 L 3.8335,-7.03906 2.63672,-6.51416 V -6.59814 C 2.58073,-6.68213 2.53524,-6.75212 2.50024,-6.80811 2.46525,-6.8641 2.41976,-6.94108 2.36377,-7.03906 l 1.21777,-0.5459 C 3.42757,-7.82292 3.38908,-8.06087 3.46606,-8.29883 c 0.07699,-0.23795 0.22746,-0.43392 0.45142,-0.58789 0.23796,-0.08398 0.47591,-0.08398 0.71387,0 0.23795,0.08399 0.43392,0.24496 0.58789,0.48291 l 0.08398,0.08399 0.29395,-0.16797 c 0.05599,-0.05599 0.11198,-0.06299 0.16797,-0.021 0.05599,0.04199 0.11198,0.10498 0.16797,0.18897 0.12597,0.11197 0.06998,0.22395 -0.16797,0.33593 L 5.59717,-7.8999 8.1377,-3.11279 M 0.831055,-4.01563 C 0.313151,-3.87565 -0.183757,-3.92814 -0.659668,-4.1731 -1.13558,-4.41805 -1.44352,-4.79948 -1.5835,-5.31738 c -0.16796,-0.48991 -0.11547,-0.96932 0.15747,-1.43824 0.27295,-0.46891 0.647384,-0.77335 1.123296,-0.91333 0.517903,-0.15397 1.000813,-0.10848 1.448734,0.13648 0.44791,0.24495 0.76985,0.62638 0.96582,1.14429 0.13997,0.48991 0.08048,0.97282 -0.17847,1.44873 C 1.6744,-4.46354 1.30697,-4.1556 0.831055,-4.01563 M -6.70654,13.0542 c 0.32194,0 0.60538,0.098 0.85034,0.2939 0.24495,0.196 0.36743,0.455 0.36743,0.7769 0,0.3219 -0.12248,0.6019 -0.36743,0.8398 -0.24496,0.238 -0.5284,0.357 -0.85034,0.357 -0.30795,0 -0.5704,-0.119 -0.78736,-0.357 -0.21696,-0.2379 -0.32544,-0.5179 -0.32544,-0.8398 0,-0.3219 0.10848,-0.5809 0.32544,-0.7769 0.21696,-0.1959 0.47941,-0.2939 0.78736,-0.2939 m -0.98682,2.5405 c 0.32194,0.252 0.65088,0.378 0.98682,0.378 0.23795,0 0.44791,-0.035 0.62988,-0.105 0.18197,-0.07 0.34993,-0.161 0.50391,-0.273 -0.12598,0.196 -0.25196,0.371 -0.37793,0.5249 -0.12598,0.154 -0.28695,0.266 -0.48291,0.336 l -0.10498,1.4487 H -6.87451 L -6.9585,16.4556 c -0.40592,-0.154 -0.65088,-0.441 -0.73486,-0.8609"
         fill-rule="evenodd"
         vector-effect="none" />
    </g>
    <g
       id="g16"
       font-style="normal"
       font-weight="400"
       font-size="7.8px"
       font-family="'MS Shell Dlg 2'"
       stroke="none"
       fill-opacity="1"
       fill="#6fa56c" />
  </g>
</svg>

<?xml version="1.0" encoding="UTF-8" standalone="no"?>
<svg width="11.2889mm" height="11.2889mm"
 viewBox="0 0 32 32"
 xmlns="http://www.w3.org/2000/svg" xmlns:xlink="http://www.w3.org/1999/xlink"  version="1.2" baseProfile="tiny">
<title>Qt SVG Document</title>
<desc>Generated with Qt</desc>
<defs>
</defs>
<g fill="none" stroke="black" stroke-width="1" fill-rule="evenodd" stroke-linecap="square" stroke-linejoin="bevel" >

<g fill="#6fa56c" fill-opacity="1" stroke="none" transform="matrix(1,0,0,1,0,0)"
font-family="MS Shell Dlg 2" font-size="7.8" font-weight="400" font-style="normal" 
>
<path vector-effect="non-scaling-stroke" fill-rule="evenodd" d="M37.2598,16 C37.2598,27.7415 27.7415,37.2598 16,37.2598 C4.25851,37.2598 -5.25984,27.7415 -5.25984,16 C-5.25984,4.25851 4.25851,-5.25984 16,-5.25984 C27.7415,-5.25984 37.2598,4.25851 37.2598,16 "/>
</g>

<g fill="#ffffff" fill-opacity="0.94902" stroke="none" transform="matrix(1,0,0,1,16,12.5984)"
font-family="MS Shell Dlg 2" font-size="7.8" font-weight="400" font-style="normal" 
>
<path vector-effect="none" fill-rule="evenodd" d="M-2.1084,-4.91846 C-1.98242,-4.6945 -1.89144,-4.55452 -1.83545,-4.49854 L-6.9585,-2.08398 C-6.87451,-1.80404 -6.67505,-1.55558 -6.36011,-1.33862 C-6.04517,-1.12166 -5.8877,-0.915202 -5.8877,-0.719238 C-5.8877,-0.537272 -6.01017,-0.397298 -6.25513,-0.299316 C-6.50008,-0.201335 -6.73454,-0.152344 -6.9585,-0.152344 C-7.04248,-0.152344 -7.13696,-0.215332 -7.24194,-0.341309 C-7.34692,-0.467285 -7.4554,-0.617757 -7.56738,-0.792725 C-7.67936,-0.967692 -7.78434,-1.14966 -7.88232,-1.33862 C-7.98031,-1.52759 -8.04329,-1.69206 -8.07129,-1.83203 L-8.15527,-1.91602 C-8.15527,-1.97201 -8.14827,-2.02799 -8.13428,-2.08398 C-8.12028,-2.13997 -8.07129,-2.19596 -7.9873,-2.25195 L-2.1084,-4.91846 M8.1377,-3.11279 C8.27767,-2.80485 8.27767,-2.48991 8.1377,-2.16797 C7.96973,-1.83203 7.69678,-1.66406 7.31885,-1.66406 L4.77832,-1.66406 L7.61279,3.58496 C7.79476,3.99089 7.88574,4.36182 7.88574,4.69775 L7.78076,10.6396 L7.78076,11.0386 L5.51318,17.1694 C5.24723,17.6593 4.8763,17.9043 4.40039,17.9043 L4.00146,17.9043 C3.69352,17.7643 3.47306,17.5439 3.34009,17.2429 C3.20711,16.942 3.18262,16.6305 3.2666,16.3086 L5.51318,10.3877 L5.51318,7.55322 L4.65234,10.5557 C4.59635,10.6396 4.55436,10.7306 4.52637,10.8286 C4.49837,10.9266 4.45638,11.0246 4.40039,11.1226 L0.516113,16.8755 C0.348145,17.1694 0.120687,17.3514 -0.16626,17.4214 C-0.453206,17.4914 -0.736654,17.4424 -1.0166,17.2744 C-1.31055,17.0645 -1.49251,16.802 -1.5625,16.4871 C-1.63249,16.1721 -1.5695,15.8747 -1.37354,15.5947 L2.36377,9.98877 L2.93066,4.40381 L2.93066,4.31982 C2.93066,4.09587 2.86768,3.87541 2.7417,3.65845 C2.61572,3.44149 2.46175,3.17204 2.27979,2.8501 C2.16781,2.68213 1.94735,2.34619 1.61841,1.84229 C1.28947,1.33838 0.953532,0.809977 0.610596,0.25708 C0.26766,-0.295817 -0.0542806,-0.803223 -0.355225,-1.26514 C-0.656169,-1.72705 -0.848633,-2 -0.932617,-2.08398 C-1.0446,-2.30794 -1.10059,-2.49691 -1.10059,-2.65088 C-1.10059,-2.81885 -1.05859,-2.98332 -0.974609,-3.14429 C-0.890625,-3.30526 -0.750651,-3.41374 -0.554688,-3.46973 C-0.414714,-3.41374 -0.278239,-3.38574 -0.145264,-3.38574 C-0.0122884,-3.38574 0.124186,-3.38574 0.26416,-3.38574 C0.348145,-3.38574 0.456624,-3.38574 0.5896,-3.38574 C0.722575,-3.38574 0.831055,-3.41374 0.915039,-3.46973 C0.999023,-3.46973 1.06901,-3.48372 1.125,-3.51172 C1.18099,-3.53971 1.23698,-3.55371 1.29297,-3.55371 L5.68115,-3.55371 L3.8335,-7.03906 L2.63672,-6.51416 L2.63672,-6.59814 C2.58073,-6.68213 2.53524,-6.75212 2.50024,-6.80811 C2.46525,-6.8641 2.41976,-6.94108 2.36377,-7.03906 L3.58154,-7.58496 C3.42757,-7.82292 3.38908,-8.06087 3.46606,-8.29883 C3.54305,-8.53678 3.69352,-8.73275 3.91748,-8.88672 C4.15544,-8.9707 4.39339,-8.9707 4.63135,-8.88672 C4.8693,-8.80273 5.06527,-8.64176 5.21924,-8.40381 L5.30322,-8.31982 L5.59717,-8.48779 C5.65316,-8.54378 5.70915,-8.55078 5.76514,-8.50879 C5.82113,-8.4668 5.87712,-8.40381 5.93311,-8.31982 C6.05908,-8.20785 6.00309,-8.09587 5.76514,-7.98389 L5.59717,-7.8999 L8.1377,-3.11279 M0.831055,-4.01563 C0.313151,-3.87565 -0.183757,-3.92814 -0.659668,-4.1731 C-1.13558,-4.41805 -1.44352,-4.79948 -1.5835,-5.31738 C-1.75146,-5.80729 -1.69897,-6.2867 -1.42603,-6.75562 C-1.15308,-7.22453 -0.778646,-7.52897 -0.302734,-7.66895 C0.215169,-7.82292 0.698079,-7.77743 1.146,-7.53247 C1.59391,-7.28752 1.91585,-6.90609 2.11182,-6.38818 C2.25179,-5.89827 2.1923,-5.41536 1.93335,-4.93945 C1.6744,-4.46354 1.30697,-4.1556 0.831055,-4.01563 M-6.70654,13.0542 C-6.3846,13.0542 -6.10116,13.1522 -5.8562,13.3481 C-5.61125,13.5441 -5.48877,13.8031 -5.48877,14.125 C-5.48877,14.4469 -5.61125,14.7269 -5.8562,14.9648 C-6.10116,15.2028 -6.3846,15.3218 -6.70654,15.3218 C-7.01449,15.3218 -7.27694,15.2028 -7.4939,14.9648 C-7.71086,14.7269 -7.81934,14.4469 -7.81934,14.125 C-7.81934,13.8031 -7.71086,13.5441 -7.4939,13.3481 C-7.27694,13.1522 -7.01449,13.0542 -6.70654,13.0542 M-7.69336,15.5947 C-7.37142,15.8467 -7.04248,15.9727 -6.70654,15.9727 C-6.46859,15.9727 -6.25863,15.9377 -6.07666,15.8677 C-5.89469,15.7977 -5.72673,15.7067 -5.57275,15.5947 C-5.69873,15.7907 -5.82471,15.9657 -5.95068,16.1196 C-6.07666,16.2736 -6.23763,16.3856 -6.43359,16.4556 L-6.53857,17.9043 L-6.87451,17.9043 L-6.9585,16.4556 C-7.36442,16.3016 -7.60938,16.0146 -7.69336,15.5947 "/>
</g>

<g fill="#6fa56c" fill-opacity="1" stroke="none" transform="matrix(1,0,0,1,0,0)"
font-family="MS Shell Dlg 2" font-size="7.8" font-weight="400" font-style="normal" 
>
</g>
</g>
</svg>
